src/images/svg/payment-methods/payment-sticpay.svg

<svg width="128" height="80" viewBox="0 0 128 80" fill="none" xmlns="http://www.w3.org/2000/svg">
<path d="M22.6025 30.0263C24.5384 29.9977 26.4458 30.4994 28.1196 31.4756L26.4247 35.4831C25.2947 34.7901 24.0157 34.3833 22.6959 34.2974C22.2409 34.2643 21.789 34.3969 21.4244 34.6695C21.1185 34.9558 20.9573 35.3626 20.9829 35.7799C20.9694 36.2243 21.1035 36.6597 21.3656 37.0183C21.8477 37.5923 22.3961 38.1075 23.0002 38.552C23.9012 39.2224 24.6605 40.0631 25.2375 41.0258C25.7377 41.9267 25.9908 42.9451 25.9757 43.9756C26.0721 45.7338 25.3836 47.4437 24.0925 48.6445C22.6131 49.8407 20.7404 50.4448 18.8391 50.3394C17.9397 50.3469 17.0418 50.2399 16.1695 50.017C15.3936 49.8106 14.6599 49.4686 14 49.0076V44.289C14.7699 44.7907 15.597 45.1929 16.4663 45.4912C17.2798 45.7956 18.14 45.9613 19.0093 45.9839C19.5246 46.02 20.0353 45.8694 20.4496 45.559C20.7856 45.2607 20.9679 44.8238 20.9408 44.3734C20.9408 44.1383 20.8895 43.9063 20.7901 43.6954C20.6696 43.4664 20.5189 43.2525 20.3487 43.0596C20.1619 42.8397 19.6526 42.3817 18.8391 41.6615C17.9547 40.9625 17.212 40.0992 16.6546 39.1184C16.1845 38.207 15.9435 37.1961 15.9495 36.1701C15.9359 35.0537 16.2297 33.9539 16.7977 32.9912C17.3612 32.0496 18.1837 31.2903 19.1705 30.8067C20.2357 30.2779 21.4123 30.0112 22.6025 30.0263ZM59.762 30.0007C61.945 29.9796 64.0859 30.5943 65.9239 31.7724L64.0331 35.8899C63.3401 35.4469 62.6049 35.0718 61.8396 34.772C61.1767 34.5189 60.4731 34.3893 59.762 34.3908C58.8069 34.3848 57.8894 34.7675 57.2204 35.4499C56.431 36.2665 55.8495 37.2608 55.5255 38.3486C55.0932 39.6397 54.8777 40.9941 54.8898 42.3561C54.8175 43.3127 55.0706 44.2664 55.6099 45.0603C56.1191 45.669 56.886 45.9989 57.6784 45.9492C58.4031 45.9462 59.1262 45.8543 59.8313 45.678C60.7021 45.4325 61.5518 45.1176 62.3729 44.7379V49.0934C60.6042 49.9115 58.6773 50.3243 56.7293 50.3047C54.8069 50.4252 52.9297 49.693 51.5934 48.3055C50.3897 46.9752 49.7976 45.0845 49.7976 42.6363C49.7674 40.3749 50.2134 38.1316 51.1023 36.0526C51.8329 34.2296 53.0744 32.6583 54.6773 31.5253C56.1779 30.5099 57.9526 29.9781 59.762 30.0007ZM42.8131 30.3065L41.9664 34.6605H37.864L34.8223 50.035H29.816L32.8502 34.662H28.79L29.6382 30.3065H42.8146H42.8131ZM49.662 30.3065L45.7103 50.035H40.618L44.5758 30.305H49.6605L49.662 30.3065ZM78.2205 31.8402C79.4559 32.9445 80.1188 34.5566 80.0163 36.2123C80.1173 38.2311 79.3128 40.1881 77.8213 41.5515C76.1218 42.921 73.975 43.6095 71.7965 43.483H70.6952L69.4071 50.035H64.3977L68.3555 30.3065H73.1358C74.9588 30.1845 76.7667 30.7284 78.2205 31.8402ZM93.7291 30.3065L95.2959 50.035H90.4147L90.27 46.3394H84.5511L82.9391 50.035H77.7369L87.2795 30.305H93.7276L93.7291 30.3065ZM103.27 30.3065L104.415 37.6194L108.415 30.305H114L106.16 42.3726L104.61 50.0004H99.5927L101.135 42.3726L98.1012 30.305H103.27V30.3065ZM89.9401 33.4492C89.7412 34.2161 89.4806 34.9633 89.1612 35.6865L86.356 42.1014H90.1103L89.8889 36.3825V35.221C89.8889 34.543 89.8889 33.9494 89.9401 33.4492ZM73.288 34.6108H72.5257L71.6277 39.1697H72.4744C73.1901 39.1968 73.8801 38.909 74.3637 38.3817C74.8277 37.8198 75.0612 37.1011 75.0175 36.3735C75.0371 35.9034 74.8729 35.4439 74.5595 35.0929C74.2221 34.7614 73.7611 34.5867 73.288 34.6108Z" fill="#F25822"/>
</svg>

<svg width="128" height="80" fill="none" xmlns="http://www.w3.org/2000/svg"><path d="M22.602 30.026a10.64 10.64 0 0 1 5.518 1.45l-1.695 4.007a8.142 8.142 0 0 0-3.73-1.186c-.454-.033-.906.1-1.27.373a1.402 1.402 0 0 0-.442 1.11c-.014.444.12.88.383 1.238A9.446 9.446 0 0 0 23 38.552a8.58 8.58 0 0 1 2.238 2.474c.5.9.753 1.92.738 2.95a5.93 5.93 0 0 1-1.883 4.669 7.68 7.68 0 0 1-5.254 1.694c-.9.008-1.797-.1-2.67-.322A6.874 6.874 0 0 1 14 49.007V44.29c.77.502 1.597.904 2.466 1.202a7.84 7.84 0 0 0 2.543.493 2.15 2.15 0 0 0 1.44-.425c.337-.298.519-.735.492-1.186 0-.235-.051-.467-.15-.678a3.263 3.263 0 0 0-.442-.635c-.187-.22-.696-.678-1.51-1.399a8.76 8.76 0 0 1-2.184-2.543 6.347 6.347 0 0 1-.706-2.948 6.111 6.111 0 0 1 .849-3.179 5.677 5.677 0 0 1 2.373-2.184 7.504 7.504 0 0 1 3.431-.78zm37.16-.025a11.215 11.215 0 0 1 6.162 1.771l-1.89 4.118a12.625 12.625 0 0 0-2.194-1.118 5.788 5.788 0 0 0-2.078-.381 3.53 3.53 0 0 0-2.542 1.059 7.078 7.078 0 0 0-1.694 2.899 12.28 12.28 0 0 0-.636 4.007c-.072.957.18 1.91.72 2.704.51.609 1.276.939 2.068.89a9.033 9.033 0 0 0 2.153-.272c.871-.245 1.72-.56 2.542-.94v4.355a13.125 13.125 0 0 1-5.644 1.212 6.561 6.561 0 0 1-5.136-2c-1.203-1.33-1.795-3.22-1.795-5.669a16.2 16.2 0 0 1 1.304-6.583 10.182 10.182 0 0 1 3.575-4.528 8.876 8.876 0 0 1 5.085-1.524zm-16.949.305-.847 4.354h-4.102l-3.042 15.375h-5.006l3.034-15.373h-4.06l.848-4.355h13.177-.002zm6.849 0L45.71 50.035h-5.092l3.958-19.73h5.084l.002.002zm28.559 1.534a5.417 5.417 0 0 1 1.795 4.372 6.773 6.773 0 0 1-2.195 5.34 8.789 8.789 0 0 1-6.025 1.931h-1.1l-1.289 6.552h-5.01l3.959-19.728h4.78a7.542 7.542 0 0 1 5.085 1.533zm15.508-1.534 1.567 19.729h-4.881l-.145-3.696h-5.719l-1.612 3.696h-5.202l9.543-19.73h6.448l.001.002zm9.541 0 1.145 7.313 4-7.314H114l-7.84 12.068L104.61 50h-5.017l1.542-7.627-3.034-12.068h5.169v.002zM89.94 33.45a14.62 14.62 0 0 1-.779 2.238L86.356 42.1h3.754l-.221-5.718V35.22c0-.678 0-1.272.051-1.772zm-16.652 1.162h-.762l-.898 4.559h.846a2.437 2.437 0 0 0 1.89-.788c.464-.562.697-1.28.653-2.008a1.81 1.81 0 0 0-.457-1.281 1.69 1.69 0 0 0-1.272-.482z" fill="#F25822"/></svg>
